public/ddos.svg

<svg width="60" height="75" viewBox="0 0 60 75" fill="none" xmlns="http://www.w3.org/2000/svg">
<g clip-path="url(#clip0_9_86558)">
<path d="M28.1309 42.3838L27.9641 42.1075L30.1128 40.7934L26.4137 34.3468L14.0278 41.4801C13.9909 41.5011 13.9473 41.5067 13.9064 41.4956C13.8655 41.4845 13.8305 41.4576 13.8092 41.4208L6.20571 28.1965L4.07609 29.5485L3.9043 29.2751L6.1759 27.8332C6.19425 27.8217 6.21467 27.8141 6.236 27.8106C6.25733 27.8072 6.27913 27.8081 6.30012 27.8132C6.32111 27.8184 6.34084 27.8279 6.35805 27.841C6.37527 27.8541 6.38959 27.8707 6.40021 27.8896L14.0065 41.1168L26.3924 33.9835C26.4294 33.9623 26.4732 33.9566 26.5143 33.9677C26.5553 33.9788 26.5904 34.0058 26.6118 34.0428L30.4699 40.7656C30.4911 40.8021 30.4972 40.8455 30.4868 40.8865C30.4764 40.9275 30.4505 40.9628 30.4146 40.9847L28.1309 42.3838Z" fill="#1B69FF"/>
<path d="M28.0461 42.2465L24.2071 35.5808L11.6715 42.7747L3.98851 29.4141L0.160156 31.6176L11.6757 51.6418L28.0461 42.2465Z" fill="#1B69FF"/>
<path d="M11.6763 51.7992C11.6476 51.7997 11.6194 51.7925 11.5944 51.7783C11.5694 51.7641 11.5487 51.7435 11.5343 51.7185L0.019431 31.6951C0.00888672 31.6766 0.00208012 31.6563 -0.000629585 31.6351C-0.00333929 31.614 -0.00187803 31.5926 0.00365982 31.572C0.00919766 31.5515 0.0187079 31.5322 0.0316492 31.5154C0.0445905 31.4985 0.0606771 31.4844 0.0790493 31.4738L3.90741 29.2717C3.92567 29.261 3.94585 29.2541 3.96676 29.2514C3.98768 29.2486 4.00895 29.25 4.02933 29.2555C4.0497 29.261 4.0688 29.2705 4.08552 29.2834C4.10225 29.2964 4.11625 29.3125 4.12677 29.3309L11.7295 42.5523L24.126 35.4391C24.163 35.4178 24.2068 35.4121 24.2479 35.4232C24.289 35.4343 24.324 35.4613 24.3454 35.4983L28.1844 42.1633C28.2058 42.2005 28.2115 42.2447 28.2005 42.2862C28.1894 42.3277 28.1625 42.3631 28.1255 42.3846L11.7529 51.7799C11.7294 51.7927 11.7031 51.7994 11.6763 51.7992ZM0.381474 31.673L11.7352 51.4173L27.8273 42.184L24.1495 35.7988L11.7529 42.9143C11.716 42.9355 11.6722 42.9412 11.6311 42.9301C11.5901 42.919 11.555 42.892 11.5336 42.855L3.93085 29.6343L0.381474 31.673Z" fill="#1B69FF"/>
<path d="M59.6834 34.23L59.6238 34.1978C56.0432 32.1185 53.1299 27.0453 53.1299 22.888C53.1297 22.4559 53.1689 22.0245 53.247 21.5996L53.2811 21.5796L53.2584 21.5403C53.2726 21.469 53.2846 21.3976 53.301 21.3262C53.3249 21.2236 53.3233 21.1167 53.2965 21.0149C53.2696 20.9131 53.2183 20.8194 53.1469 20.7423L35.5967 1.57968C35.4863 1.45842 35.3339 1.38433 35.1708 1.37267L17.4942 0.00141956C17.3667 -0.00704656 17.2395 0.022493 17.1286 0.086356L14.573 1.56827L14.6859 1.76598C14.6506 1.8697 14.6423 1.98079 14.6618 2.08865C14.7851 2.71413 14.8502 3.3498 14.8563 3.98742C14.8982 5.00392 14.6559 6.01187 14.1571 6.89696C13.1014 6.92478 12.0616 6.63442 11.1713 6.06321C11.0735 6.00659 10.9626 5.97679 10.8498 5.97679C10.7369 5.97679 10.626 6.00659 10.5282 6.06321L7.97266 7.54438L8.09263 7.75353C8.02716 8.45889 8.00699 9.16778 8.03227 9.87574C8.03227 11.0343 8.02876 12.5776 8.02734 14.1208C8.02734 17.206 8.02734 20.2911 8.02734 20.2911C8.07024 25.3963 8.85145 30.4681 10.3465 35.3471L10.4373 35.6576L11.6718 35.2914L11.581 34.9809C10.1216 30.2206 9.35826 25.2723 9.31502 20.2911C9.31502 17.049 9.31505 11.3105 9.32499 8.98773C10.0233 9.34425 10.7954 9.52976 11.5785 9.52914C12.3616 9.52852 13.1335 9.3418 13.8312 8.98418C14.2244 8.75486 14.5758 8.45986 14.8705 8.11188L14.8989 8.10759L14.8954 8.08191C15.7797 6.90807 16.2239 5.45817 16.1497 3.98742C16.1481 3.54895 16.1195 3.111 16.0638 2.67612L32.6748 3.961L49.8297 22.6924C49.7394 23.1917 49.6945 23.6983 49.6955 24.2057C49.6955 28.6471 52.7629 34.105 56.5657 36.4756V48.5186C56.5657 56.9567 54.0435 63.4618 49.511 67.0894C49.4606 67.108 49.4116 67.1279 49.3604 67.1465L49.0573 67.2543L49.1085 67.3971C47.9666 68.2474 46.7047 68.9211 45.3646 69.3958L33.0475 73.5752L20.9087 55.0222C19.7147 53.2177 18.5824 51.3346 17.5432 49.4265L17.3884 49.141L16.2597 49.7628L16.4145 50.0483C17.4736 51.992 18.6243 53.9065 19.8354 55.7367L32.2468 74.7038C32.305 74.7937 32.3847 74.8675 32.4786 74.9185C32.5724 74.9695 32.6775 74.996 32.7842 74.9957C32.854 74.9954 32.9232 74.9839 32.9894 74.9614L45.7856 70.6192C47.3598 70.062 48.835 69.2544 50.1548 68.2272C57.0569 65.5968 60.0121 59.2766 60.0121 47.1973V34.7875C60.0114 34.6736 59.9806 34.5619 59.9228 34.464C59.8651 34.366 59.7824 34.2853 59.6834 34.23ZM12.7267 8.06762C11.82 8.33267 10.8485 8.25994 9.99084 7.86276L10.8541 7.36307C11.4443 7.68076 12.0741 7.9177 12.7267 8.06762ZM58.7131 47.198C58.7131 56.0908 57.0804 61.6686 53.389 64.8494C56.2782 60.8584 57.8428 55.2699 57.8428 48.5186V36.4321L58.7138 35.9203L58.7131 47.198ZM17.5986 1.30771L34.8222 2.64399L51.6583 21.0271L50.6013 21.6395L33.4387 2.90098C33.3283 2.77972 33.1758 2.70562 33.0128 2.69396L17.3068 1.47547L17.5986 1.30771ZM51.1053 22.8438L51.8649 22.4041C51.8557 22.5661 51.8436 22.7274 51.8436 22.8916C51.8436 27.1031 54.6036 32.2248 58.1324 34.7653L57.1691 35.3321C53.7269 33.1514 50.9726 28.2531 50.9726 24.2122C50.9722 23.7528 51.0167 23.2944 51.1053 22.8438Z" fill="#1B69FF"/>
<path d="M46.5238 23.5103L31.2338 6.81752C31.1511 6.72781 31.0378 6.67275 30.9165 6.66333L19.0083 5.73964C18.8903 5.73078 18.7731 5.76546 18.6787 5.83719C18.5842 5.90892 18.519 6.01281 18.4951 6.1294C17.8165 9.59573 15.4427 11.9578 12.2936 12.294C12.1749 12.3062 12.0649 12.3623 11.985 12.4515C11.9051 12.5407 11.8611 12.6565 11.8613 12.7765V20.2852C11.8613 26.3434 13.3031 33.2054 16.0318 40.1209L16.1504 40.4215L17.0484 40.0645L16.9298 39.7633C14.2465 32.9577 12.8275 26.2221 12.8275 20.2852V13.2012C16.0546 12.6794 18.52 10.2382 19.3519 6.74043L30.6545 7.61772L45.6826 24.0249C45.6826 24.0849 45.6826 24.1449 45.6826 24.2048C45.6826 29.2501 48.439 34.9343 52.5556 38.4006V48.5269C52.5556 57.5675 49.386 63.8784 43.8625 65.8407L34.3501 69.0686L23.8035 52.9519C22.4768 50.9451 21.2514 48.8724 20.1321 46.7417L19.9816 46.4561L19.1297 46.9094L19.2802 47.1949C20.4147 49.3547 21.6565 51.4557 23.0007 53.4901L33.751 69.9188C33.795 69.9858 33.8549 70.0408 33.9253 70.0788C33.9957 70.1168 34.0743 70.1367 34.1542 70.1365C34.2066 70.1365 34.2587 70.1278 34.3083 70.1108L44.1819 66.7608C50.12 64.6508 53.5253 58.0058 53.5253 48.5291V38.1715C53.5254 38.0994 53.5095 38.0282 53.4787 37.9631C53.4478 37.898 53.4029 37.8406 53.3471 37.7953C49.3427 34.516 46.6523 29.0538 46.6523 24.2048C46.6523 24.0882 46.6539 23.9714 46.6573 23.8543C46.6597 23.7264 46.6118 23.6027 46.5238 23.5103Z" fill="#1B69FF"/>
<path d="M35.2601 68.5305L36.0666 67.9973L25.3581 51.6329C24.1368 49.7834 23.0106 47.8721 21.9841 45.9066L21.8343 45.6211L20.9824 46.0729L21.1322 46.3585C22.1735 48.3528 23.316 50.2919 24.5552 52.1683L35.2601 68.5305Z" fill="#1B69FF"/>
</g>
<defs>
<clipPath id="clip0_9_86558">
<rect width="60" height="75" fill="white"/>
</clipPath>
</defs>
</svg>

<svg xmlns="http://www.w3.org/2000/svg" width="60" height="75" fill="none" viewBox="0 0 60 75"><g fill="#1b69ff" clip-path="url(#a)"><path d="m28.13 42.384-.166-.276 2.149-1.315-3.7-6.446-12.385 7.133a.16.16 0 0 1-.219-.06L6.206 28.197l-2.13 1.352-.172-.273 2.272-1.442a.16.16 0 0 1 .124-.02.16.16 0 0 1 .1.077l7.607 13.227 12.385-7.133a.16.16 0 0 1 .22.059l3.858 6.723a.16.16 0 0 1-.055.219z"/><path d="m28.046 42.247-3.839-6.666-12.535 7.194-7.683-13.36L.16 31.617l11.516 20.024z"/><path d="M11.676 51.8a.16.16 0 0 1-.142-.081L.02 31.694a.163.163 0 0 1 .06-.221l3.828-2.202a.16.16 0 0 1 .122-.016.16.16 0 0 1 .098.075l7.603 13.221 12.396-7.113a.16.16 0 0 1 .22.06l3.838 6.664a.163.163 0 0 1-.059.222L11.753 51.78a.16.16 0 0 1-.077.02M.381 31.672l11.354 19.744 16.092-9.233-3.678-6.385-12.396 7.115a.16.16 0 0 1-.22-.059l-7.602-13.22z"/><path d="m59.683 34.23-.06-.032c-3.58-2.08-6.493-7.153-6.493-11.31 0-.432.039-.864.117-1.288l.034-.02-.023-.04q.02-.106.043-.214a.65.65 0 0 0-.154-.584L35.597 1.58a.64.64 0 0 0-.426-.207L17.494 0a.65.65 0 0 0-.365.085l-2.556 1.482.113.198a.65.65 0 0 0-.024.323q.185.94.194 1.898a5.47 5.47 0 0 1-.699 2.91 5.27 5.27 0 0 1-2.986-.834.64.64 0 0 0-.643 0L7.973 7.544l.12.21a17 17 0 0 0-.06 2.122c0 1.158-.004 2.702-.006 4.245v6.17a53 53 0 0 0 2.32 15.056l.09.31 1.235-.366-.091-.31a51.7 51.7 0 0 1-2.266-14.69c0-3.242 0-8.98.01-11.303a4.95 4.95 0 0 0 4.506-.004c.393-.23.745-.524 1.04-.872l.028-.004-.004-.026a6.28 6.28 0 0 0 1.255-4.095q-.002-.658-.086-1.31l16.61 1.284L49.83 22.692q-.136.751-.134 1.514c0 4.441 3.067 9.899 6.87 12.27v12.043c0 8.438-2.523 14.943-7.055 18.57l-.15.058-.304.107.051.143a14.2 14.2 0 0 1-3.743 1.999l-12.318 4.18L20.91 55.021a76 76 0 0 1-3.366-5.596l-.155-.285-1.128.622.154.285a78 78 0 0 0 3.421 5.689l12.412 18.967a.64.64 0 0 0 .742.257l12.797-4.342a15.6 15.6 0 0 0 4.369-2.392c6.902-2.63 9.857-8.95 9.857-21.03v-12.41a.64.64 0 0 0-.329-.557M12.727 8.068a3.9 3.9 0 0 1-2.736-.205l.863-.5c.59.318 1.22.555 1.873.705m45.986 39.13c0 8.893-1.633 14.47-5.324 17.651 2.89-3.99 4.454-9.58 4.454-16.33V36.432l.87-.512zM17.6 1.308l17.223 1.336 16.836 18.383-1.057.613L33.44 2.9a.64.64 0 0 0-.426-.207L17.307 1.475zm33.506 21.536.76-.44c-.01.162-.021.323-.021.488 0 4.211 2.76 9.333 6.288 11.873l-.963.567c-3.442-2.18-6.196-7.079-6.196-11.12q0-.692.132-1.368"/><path d="M46.524 23.51 31.234 6.818a.48.48 0 0 0-.318-.155L19.008 5.74a.485.485 0 0 0-.513.39c-.678 3.466-3.052 5.828-6.201 6.164a.48.48 0 0 0-.433.482v7.51c0 6.057 1.442 12.92 4.17 19.835l.12.3.897-.356-.118-.302c-2.684-6.805-4.102-13.54-4.102-19.478v-7.084c3.227-.522 5.692-2.963 6.524-6.46l11.302.877 15.029 16.407v.18c0 5.045 2.756 10.73 6.873 14.196v10.126c0 9.04-3.17 15.351-8.693 17.314l-9.513 3.228-10.547-16.117a72 72 0 0 1-3.67-6.21l-.151-.286-.852.453.15.286A73 73 0 0 0 23 53.49L33.752 69.92a.48.48 0 0 0 .557.192l9.874-3.35c5.938-2.11 9.343-8.755 9.343-18.232V38.171a.49.49 0 0 0-.178-.376c-4.004-3.279-6.695-8.741-6.695-13.59q0-.176.005-.35a.49.49 0 0 0-.133-.345"/><path d="m35.26 68.53.807-.533-10.709-16.364a65 65 0 0 1-3.374-5.726l-.15-.286-.852.452.15.285a66 66 0 0 0 3.423 5.81z"/></g><defs><clipPath id="a"><path fill="#fff" d="M0 0h60v75H0z"/></clipPath></defs></svg>
